X:29
T: Erdők, völgyek
O: Felsőiregh (Tolna)
Q: "Parlando"
M:2/4
L:1/8
K:D
BBBA | BBBA | 
BcdB | BE AG3 z2 |
AA B e3 | dBBA | 
GGGE | DE3 | EE z2 | 

